!!!SOCIAL_FUNCTION:	miscellaneous songs
!!!PDT:	1918

Specific Region: Dakotas, Minnesota, Montana, Nebraska
!!!REG: Dakotas and Montana
!!!LING_GROUP: Siouan
!!!LANG: Tone
!!!OTL@ENG: Song Concerning a Message from Washington
!!!ONM: No. 239
**kern
*Imale
*clefF4
*k[f#]
*M3/4
*MM88
8E
8g
8g
8g
32g
16.e
8e
=2
8e
8e
8e
8e
8e
8e
=3||
*M2/4
8B
8B
4B
=4
8B
8e
8e
8e
=5
16f#
8.e
(16e
16B)
8B
=6||
*M3/4
8A
8A
8G
8G
8E
8G
=7
16A
8.G
16G
8.E
8E
8E
=8
2.E
=9||
*M2/4
8E
8e
8e
8e
=10
16f#
8.e
(32e
16.B)
8B
=11||
*M3/4
8A
8A
8G
8G
4E
=12||
*M2/4
8A
8A
8G
32A
16.G
=13
8G
8E
8E
8E
=14
[2E
=15
2E]
==
*-
!!!CNT: Native American -- Sioux
!!!MRD: 1911/07//-1914///
!!!OCL: Frances Densmore
!!!YOR1: Teton Sioux Music, Bulletin 61,
!!!YOR2: Bureau of American Ethnology, Smithsonian Institution
!!!PPR: Government Printing Office
!!!PPP: Washington, D.C.
!!!PDT: 1918///
!!!ENC: Craig Stuart Sapp
!!!END: 2002/03/25/
!!!EEV: 2002/03/31/
!!!AGN: Sisseton Song
!!!MPN@@SIO: Mato'-ite'-wakang
!!!MPN@ENG: Holy-Face Bear
!!!TXO: Santee Sioux
!!!MLC: Sisseton, South Dakota, United States of America
!!!ARL: 45.6/-97.1:
!!!catalog: Catalogue No. 646
!!!PPG: 517
!!!EFL: 244/245
!!!VTS: 1926652427
